src/lib/packages/icons/src/assets/line/activity-notification-circle.svg

<svg width="24" height="24" viewBox="0 0 24 24" fill="none" xmlns="http://www.w3.org/2000/svg">
<path d="M22.535 9.84998C22.678 10.552 22.75 11.275 22.75 12C22.75 17.928 17.928 22.75 12 22.75C6.072 22.75 1.25 17.928 1.25 12C1.25 6.072 6.072 1.25 12 1.25C12.725 1.25 13.448 1.32197 14.15 1.46497C14.556 1.54797 14.817 1.94398 14.735 2.34998C14.652 2.75498 14.257 3.01606 13.85 2.93506C13.247 2.81206 12.624 2.75 12 2.75C6.899 2.75 2.75 6.899 2.75 12C2.75 17.101 6.899 21.25 12 21.25C17.101 21.25 21.25 17.101 21.25 12C21.25 11.375 21.188 10.753 21.065 10.15C20.982 9.74402 21.244 9.34801 21.65 9.26501C22.057 9.18401 22.452 9.44498 22.535 9.84998ZM13.323 12.2639L11.734 10.679C11.052 9.99796 9.94199 9.99805 9.25999 10.6801L6.46899 13.4709C6.17599 13.7639 6.17599 14.239 6.46899 14.532C6.61499 14.678 6.80699 14.752 6.99899 14.752C7.19099 14.752 7.38301 14.679 7.52901 14.532L10.32 11.741C10.418 11.643 10.576 11.643 10.674 11.741L12.263 13.3259C12.945 14.0069 14.055 14.007 14.737 13.325L17.53 10.532C17.823 10.239 17.823 9.76395 17.53 9.47095C17.237 9.17795 16.762 9.17795 16.469 9.47095L13.676 12.2639C13.579 12.3599 13.42 12.3609 13.323 12.2639ZM17.25 4C17.25 2.483 18.483 1.25 20 1.25C21.517 1.25 22.75 2.483 22.75 4C22.75 5.517 21.517 6.75 20 6.75C18.483 6.75 17.25 5.517 17.25 4ZM18.75 4C18.75 4.689 19.311 5.25 20 5.25C20.689 5.25 21.25 4.689 21.25 4C21.25 3.311 20.689 2.75 20 2.75C19.311 2.75 18.75 3.311 18.75 4Z" fill="currentColor"/>
</svg>

<svg xmlns="http://www.w3.org/2000/svg" width="24" height="24" fill="none"><path fill="currentColor" d="M22.535 9.85c.143.702.215 1.425.215 2.15 0 5.928-4.822 10.75-10.75 10.75S1.25 17.928 1.25 12 6.072 1.25 12 1.25c.725 0 1.448.072 2.15.215a.75.75 0 0 1-.3 1.47A9.28 9.28 0 0 0 12 2.75c-5.101 0-9.25 4.149-9.25 9.25s4.149 9.25 9.25 9.25 9.25-4.149 9.25-9.25c0-.625-.062-1.247-.185-1.85a.75.75 0 1 1 1.47-.3Zm-9.212 2.414-1.589-1.585a1.752 1.752 0 0 0-2.474.001l-2.791 2.79a.75.75 0 0 0 1.06 1.062l2.791-2.791a.25.25 0 0 1 .354 0l1.589 1.585a1.752 1.752 0 0 0 2.474-.001l2.793-2.793a.75.75 0 0 0-1.061-1.061l-2.793 2.793a.251.251 0 0 1-.353 0ZM17.25 4A2.752 2.752 0 0 1 20 1.25 2.752 2.752 0 0 1 22.75 4 2.752 2.752 0 0 1 20 6.75 2.752 2.752 0 0 1 17.25 4Zm1.5 0c0 .689.561 1.25 1.25 1.25s1.25-.561 1.25-1.25-.561-1.25-1.25-1.25-1.25.561-1.25 1.25Z"/></svg>
